assets/img/icons/duotone-icons/Media/Airplay-video.svg

<?xml version="1.0" encoding="UTF-8"?>
<svg width="24px" height="24px" viewBox="0 0 24 24" version="1.1" xmlns="http://www.w3.org/2000/svg" xmlns:xlink="http://www.w3.org/1999/xlink">
    <!-- Generator: Sketch 52.2 (67145) - http://www.bohemiancoding.com/sketch -->
    <title>Stockholm-icons / Media / Airplay-video</title>
    <desc>Created with Sketch.</desc>
    <g id="Stockholm-icons-/-Media-/-Airplay-video" stroke="none" stroke-width="1" fill="none" fill-rule="evenodd">
        <rect id="bound" x="0" y="0" width="24" height="24"></rect>
        <path d="M7,15 C7.55228475,15 8,15.4477153 8,16 C8,16.5522847 7.55228475,17 7,17 L6,17 C4.34314575,17 3,15.6568542 3,14 L3,7 C3,5.34314575 4.34314575,4 6,4 L18,4 C19.6568542,4 21,5.34314575 21,7 L21,14 C21,15.6568542 19.6568542,17 18,17 L17,17 C16.4477153,17 16,16.5522847 16,16 C16,15.4477153 16.4477153,15 17,15 L18,15 C18.5522847,15 19,14.5522847 19,14 L19,7 C19,6.44771525 18.5522847,6 18,6 L6,6 C5.44771525,6 5,6.44771525 5,7 L5,14 C5,14.5522847 5.44771525,15 6,15 L7,15 Z" id="Combined-Shape" fill="#335EEA"></path>
        <polygon id="Path-15" fill="#335EEA" opacity="0.3" points="8 20 16 20 12 15"></polygon>
    </g>
</svg>

<svg width="24" height="24" viewBox="0 0 24 24" xmlns="http://www.w3.org/2000/svg"><g fill="none" fill-rule="evenodd"><path d="M0 0h24v24H0z"/><path d="M7 15a1 1 0 010 2H6a3 3 0 01-3-3V7a3 3 0 013-3h12a3 3 0 013 3v7a3 3 0 01-3 3h-1a1 1 0 010-2h1a1 1 0 001-1V7a1 1 0 00-1-1H6a1 1 0 00-1 1v7a1 1 0 001 1h1z" fill="#335EEA"/><path fill="#335EEA" opacity=".3" d="M8 20h8l-4-5z"/></g></svg>
